!!!ONB: MCCC : IJH0411_04 : Extracted Monophonic Melody
!!!COM: Haydn, Joseph
!!!OPR: String Quartet in B-flat major
!!!OMV: 4
!!!SCT: Hob.III:62 ; Op.55 No.3
!!!ODT: 1788///
**kern
*thru
*>A
*clefG2
*k[b-e-]
*B-:
*M6/8
16bb-
16aa
2r
8r
=1
16gg
16ff
16ee-
16dd
16gg
16ff
16ee-
16dd
16cc
16b-
16ee-
16dd
=2
16cc
16b-
16a
16g
16f
16e-
16d
16f
16e-
16g
16f
16a
=3
16g
16b-
16a
16cc
16b-
16dd
16cc
16dd
16ee-
16cc
16dd
16b-
=4
16ee
16ff
16ee
16ff
16dd
16b-
4ff
16bb-
16aa
=5
16gg
16ff
16ee-
16dd
16gg
16ff
16ee-
16dd
16cc
16b-
16ee-
16dd
=6
16cc
16b-
16a
16g
16f
16e-
16d
16f
16e-
16g
16f
16a
=7
16g
16b-
16a
16cc
16b-
16dd
16cc
16gg
16ff#
16gg
16ee-
16cc
=8
16b-
16dd
16ff
16dd
16ee-
16cc
4b-
8bb-
=9
8aa
8aa
16ccc
16ff
8fff
8fff
16ddd
16bb-
=10
8aa
8aa
16ccc
16ff
8bb-
8bb-
8bb-
=11
8aa
8aa
16ccc
16ff
8fff
8fff
16ddd
16bb-
=12
8aa
8aa
16ccc
16ff
8bb-
8bb-
16ddd
16ccc#
=13
16ddd
16ccc#
16ddd
16ccc#
16ddd
16aa
16bb-
16aa
16bb-
16gg
16ccc
16bb
=14
16ccc
16bb
16ccc
16bb
16ccc
16gg
16aa
16gg
16aa
16ff
16cc
16ff
=15
16ee
16gg
16ee
16cc
16ff
16aa
16gg
16bb-
16gg
16cc
16aa
16ff
=16
16ee
16gg
16ee
16cc
16ff
16aa
16gg
16bb-
16gg
16cc
16aa
16ff
=17
8ccc
8ccc
8ccc
8ccc
8ccc
8ccc
=18
8ccc
8ccc
8ccc
8ccc
8ccc
8ccc
=19
8ccc
8bb
8bb
8bb
8bb-
8bb-
=20
4.bb-[
8bb-]
16bb-
16aa
16bb-
16ccc
=21
8ddd
8r
8r
4r
8aa
=22
8aa
8bb-
8aa
8gg
8ff
8gg
=23
4ff
8aa
8ccc
8bb
8bb-
=24
8aa
8bb-
8aa
8gg
8ff
8gg
=25
4ff
8aa
8ccc
8bb
8bb-
=26
8aa
8bb-
8aa
8gg
8ff
8gg
=27
4.ff[
8ff]
8gg
8aa
=28
4.bb-
4ddd
8ddd
=29
8ccc
8aa
8ccc
8bb-
8aa
8gg
=30
16ff
16ee
16ff
16gg
16aa
16bb-
8ccc
8ccc
8ccc
=31
2.ccc
=32
2.ccc
=33
2.ccc[
=34
8ccc]
8fff
8fff
8fff
8eee
8eee-
=35
4.ccc#
8ddd
16eee
16fff#
16ggg
16aaa
=36
8bbb-
8bbb-
8bbb-
8bbb-
8aaa
8ggg
=37
4.fff
4.ggg
=38
16fff
16aaa
16cccc
16aaa
16cccc
16aaa
16fff
16aaa
16cccc
16aaa
16cccc
16aaa
=39
8fff
8r
8fff
8fff
8r
8fff
=40
8fff
8r
8fff
8fff
8fff
8fff
=41
4fff
8r
4r
=42
*>A
16bb-
16aa
2r
8r
=43
16gg
16ff
16ee-
16dd
16gg
16ff
16ee-
16dd
16cc
16b-
16ee-
16dd
=44
16cc
16b-
16a
16g
16f
16e-
16d
16f
16e-
16g
16f
16a
=45
16g
16b-
16a
16cc
16b-
16dd
16cc
16dd
16ee-
16cc
16dd
16b-
=46
16ee
16ff
16ee
16ff
16dd
16b-
4ff
16bb-
16aa
=47
16gg
16ff
16ee-
16dd
16gg
16ff
16ee-
16dd
16cc
16b-
16ee-
16dd
=48
16cc
16b-
16a
16g
16f
16e-
16d
16f
16e-
16g
16f
16a
=49
16g
16b-
16a
16cc
16b-
16dd
16cc
16gg
16ff#
16gg
16ee-
16cc
=50
16b-
16dd
16ff
16dd
16ee-
16cc
4b-
8bb-
=51
8aa
8aa
16ccc
16ff
8fff
8fff
16ddd
16bb-
=52
8aa
8aa
16ccc
16ff
8bb-
8bb-
8bb-
=53
8aa
8aa
16ccc
16ff
8fff
8fff
16ddd
16bb-
=54
8aa
8aa
16ccc
16ff
8bb-
8bb-
16ddd
16ccc#
=55
16ddd
16ccc#
16ddd
16ccc#
16ddd
16aa
16bb-
16aa
16bb-
16gg
16ccc
16bb
=56
16ccc
16bb
16ccc
16bb
16ccc
16gg
16aa
16gg
16aa
16ff
16cc
16ff
=57
16ee
16gg
16ee
16cc
16ff
16aa
16gg
16bb-
16gg
16cc
16aa
16ff
=58
16ee
16gg
16ee
16cc
16ff
16aa
16gg
16bb-
16gg
16cc
16aa
16ff
=59
8ccc
8ccc
8ccc
8ccc
8ccc
8ccc
=60
8ccc
8ccc
8ccc
8ccc
8ccc
8ccc
=61
8ccc
8bb
8bb
8bb
8bb-
8bb-
=62
4.bb-[
8bb-]
16bb-
16aa
16bb-
16ccc
=63
8ddd
8r
8r
4r
8aa
=64
8aa
8bb-
8aa
8gg
8ff
8gg
=65
4ff
8aa
8ccc
8bb
8bb-
=66
8aa
8bb-
8aa
8gg
8ff
8gg
=67
4ff
8aa
8ccc
8bb
8bb-
=68
8aa
8bb-
8aa
8gg
8ff
8gg
=69
4.ff[
8ff]
8gg
8aa
=70
4.bb-
4ddd
8ddd
=71
8ccc
8aa
8ccc
8bb-
8aa
8gg
=72
16ff
16ee
16ff
16gg
16aa
16bb-
8ccc
8ccc
8ccc
=73
2.ccc
=74
2.ccc
=75
2.ccc[
=76
8ccc]
8fff
8fff
8fff
8eee
8eee-
=77
4.ccc#
8ddd
16eee
16fff#
16ggg
16aaa
=78
8bbb-
8bbb-
8bbb-
8bbb-
8aaa
8ggg
=79
4.fff
4.ggg
=80
16fff
16aaa
16cccc
16aaa
16cccc
16aaa
16fff
16aaa
16cccc
16aaa
16cccc
16aaa
=81
8fff
8r
8fff
8fff
8r
8fff
=82
8fff
8r
8fff
8fff
8fff
8fff
=83
4fff
8r
4r
=84
*>B
8r
2r
8r
=85
2.r
=86
2.r
=87
2.r
=88
4r
8r
4r
16gg
16ff
=89
16ee-
16dd
8cc
8r
8r
16bb-
16aa-
16gg
16ff
=90
16ee-
16ff
16gg
16ff
16ee-
16dd
16cc
16dd
16ee-
16dd
16cc
16b-
=91
16a
16b-
16cc
16b-
16a
16g
8f#
8r
8r
=92
16g
16b-
16dd
16gg
16dd
16b-
8a
8r
8r
=93
16g
16b-
16dd
16gg
16dd
16b-
8g
8r
8r
=94
16a
16cc
16ee-
16gg
16ee-
16cc
8b
8r
8r
=95
16g
16cc
16ee-
16gg
16ee-
16cc
8b-
8r
8r
=96
16a-
16cc
16ee-
16aa-
16ee-
16cc
8b-
8r
8r
=97
16a
16cc
16ff
16aa
16ff
16cc
8b-
8r
8r
=98
16b-
16dd-
16gg-
16bb-
16gg-
16dd-
8b-
8r
8r
=99
16b-
16dd
16ff
16bb-
16ff
16dd
8b-
8r
8r
=100
16g
16b-
16ee-
16gg
16ee-
16b-
8a-
8r
8r
=101
16e-
16g
16cc
16ee-
16cc
16g
8f
8r
8r
=102
16d
16f
16b-
16dd
16b-
16f
8e
8r
8r
=103
16f
16a
16cc
16ff
16cc
16a
4f
16f
16g
=104
16a
16b-
16cc
16dd
16ee-
16ff
16ee-
16dd
16cc
16b-
16a
16cc
=105
16b-
16cc
16dd
16ee-
16ff
16gg
16aa
16bb-
16aa
16bb-
16f
16g
=106
16a
16b-
16cc
16dd
16ee-
16ff
16ee-
16dd
16cc
16b-
16a
16cc
=107
16b-
16cc
16dd
16ee-
16ff
16gg
16aa
16bb-
16aa
16bb-
16f
16g
=108
16a
16b-
16a
16b-
16cc
16dd
16ee-
16ff
16gg
16aa
16bb-
16aa
=109
16gg
16ff
16ee-
16dd
16gg
16ff
16ee-
16dd
16cc
16b-
16ee-
16dd
=110
16cc
16b-
16a
16g
16f
16e-
16d
16f
16e-
16g
16f
16a
=111
16g
16b-
16a
16cc
16b-
16dd
16cc
16dd
16ee-
16cc
16dd
16b-
=112
16ee
16ff
16ee
16ff
16dd
16b-
8ff
8r
16dd
16ee-
=113
16ff
16gg
16aa
16bb-
16b-
16cc
16dd
16ee-
16ff
16gg
16g
16a
=114
16b-
16cc
16dd
16ee-
16ff
16gg
8ff
8ff
8ff
=115
8ff
8ee-
8dd
8cc
8cc
8cc
=116
4cc
8dd
4cc
8dd
=117
16cc
16ee-
16dd
16ee-
16dd
16ee-
16r
16aa
16bb-
16aa
16bb-
16aa
=118
16r
16bb
16ccc
16bb
16ccc
16bb
16r
16ddd
16eee-
16ddd
16eee-
16ddd
=119
8eee-
8ccc
8aa
8gg
8ff
8ee
=120
4.ee-[
4ee-]
32b-
32a
32b-
32cc
=121
4dd-
8dd-
4dd-
8dd-
=122
4.dd-
8cc
8r
32cc
32b-
32cc
32dd
=123
4ee-
8ee-
4ee-
8ee-
=124
4.ee-
8dd
8r
32dd
32cc
32dd
32ee
=125
4ff
8ff
4ff
8ff
=126
4ff
8ee
4r
8cc
=127
4.ee-
4dd
8b-
=128
16g
16ee-
16dd
16cc
16b
16cc
16ff#
16gg
16ff
16ee-
16dd
16cc
=129
4.b-
4.cc
=130
16b-
16a
16b-
16cc
16dd
16ee-
8ff
8ff
8ff
=131
2.ff
=132
2.ff
=133
2.ff
=134
2.ff
=135
2.ff[
=136
8ff]
8bb-
8bb-
8bb-
8aa
8aa-
=137
4.ff#
8gg
16aa
16bb
16ccc
16ddd
=138
8eee-
8eee-
8eee-
8eee-
8ddd
8ccc
=139
4.bb-
4.ccc
=140
4bb-
8bb-
8aa
8aa
16ccc
16ff
=141
8fff
8fff
16ddd
16bb-
8aa
8aa
16ccc
16ff
=142
8bb-
8bb-
8bb-
8aa
8aa
16ccc
16ff
=143
8fff
8fff
16ddd
16bb-
8aa
8aa
16ccc
16ff
=144
8bb-
8r
16eee-
16aa
8bb-
8r
16eee-
16aa
=145
8bb-
8r
16eee-
16aa
8bb-
8bb-
8bb-
=146
4bb-
8r
4r
==
*-
